dist/logos/VestiaireCollective.svg

<?xml version="1.0" encoding="UTF-8"?>
<svg viewBox="0 0 213 19" version="1.1" xmlns="http://www.w3.org/2000/svg" xmlns:xlink="http://www.w3.org/1999/xlink">
    <g stroke="none" stroke-width="1" fill="none" fill-rule="evenodd">
        <g transform="translate(-81.000000, -84.000000)" fill="#010202" fill-rule="nonzero">
            <g transform="translate(0.000000, 64.000000)">
                <g id="Logo-VestiaireCollective" transform="translate(81.000000, 20.000000)">
                    <path d="M206.527208,6.688 C206.753004,6.46 207.054064,6.308 207.355124,6.308 C208.408834,6.308 208.935689,8.132 208.935689,9.956 C208.634629,10.032 207.656184,10.184 205.398233,10.26 C205.473498,8.968 205.774558,7.524 206.527208,6.688 Z M212.623675,14.668 C211.871025,15.352 210.89258,15.884 209.537809,15.884 C206.903534,15.884 205.398233,14.06 205.398233,10.64 L212.473145,10.64 C212.54841,10.488 212.54841,10.26 212.54841,9.804 C212.54841,7.6 210.817314,5.776 207.580919,5.776 C204.193993,5.776 201.333922,8.588 201.333922,12.616 C201.333922,15.96 203.516608,18.696 206.978799,18.696 C209.763604,18.696 211.569965,17.1 212.69894,14.744 L212.623675,14.668 Z"/>
                    <path d="M202.763958,6.384 L202.763958,6.308 L198.097527,6.308 L198.097527,6.384 L198.699647,6.764 C199.301767,7.068 199.678092,7.448 199.678092,7.752 C199.678092,8.208 199.075972,10.184 198.699647,11.324 L197.721201,14.06 L197.645936,14.06 L195.387986,7.904 C195.237456,7.6 195.237456,7.22 195.237456,7.144 C195.237456,6.916 195.387986,6.84 195.990106,6.688 L196.667491,6.536 L196.667491,6.308 L188.990459,6.308 L188.990459,6.536 L189.442049,6.688 C190.119435,6.84 190.269965,6.916 190.64629,7.828 L195.312721,18.468 L196.441696,18.468 L200.581272,8.816 C201.108127,7.6 201.409187,7.372 202.086572,6.84 L202.763958,6.384 Z"/>
                    <path d="M187.560424,17.404 L187.560424,8.056 C187.560424,7.828 187.560424,6.688 187.635689,5.7 L187.560424,5.624 L182.141343,7.448 L182.141343,7.524 L182.893993,8.436 C183.119788,8.74 183.119788,8.968 183.119788,9.424 L183.119788,17.48 C183.119788,17.86 183.044523,17.936 182.442403,18.088 L182.066078,18.164 L182.066078,18.392 L188.689399,18.392 L188.689399,18.164 L188.313074,18.088 C187.560424,17.86 187.560424,17.784 187.560424,17.404"/>
                    <path d="M185.302473,4.788 C186.732509,4.788 187.786219,3.724 187.786219,2.508 C187.786219,1.292 186.807774,0.304 185.528269,0.304 C184.022968,0.304 182.893993,1.444 182.893993,2.584 C182.893993,3.8 184.022968,4.788 185.302473,4.788"/>
                    <path d="M179.657597,16.188 C179.130742,16.188 178.603887,16.112 178.302827,15.808 C178.001767,15.504 177.851237,15.048 177.851237,14.364 L177.851237,8.284 L181.238163,8.284 L181.539223,6.308 L177.851237,6.308 L177.926502,3.116 L177.851237,3.116 C176.345936,4.484 174.163251,6.308 171.9053,7.98 L171.9053,8.284 L173.410601,8.284 L173.410601,15.048 C173.410601,16.34 173.636396,17.176 174.313781,17.86 C174.915901,18.468 175.819081,18.772 177.098587,18.772 C179.431802,18.772 180.937102,17.404 181.840283,15.656 L181.765018,15.58 C181.087633,15.96 180.334982,16.188 179.657597,16.188"/>
                    <path d="M166.260424,6.384 C166.486219,6.384 166.561484,6.46 166.712014,6.764 L168.367845,9.804 C168.74417,10.488 168.969965,10.564 169.34629,10.564 C170.24947,10.564 171.378445,9.804 171.378445,8.512 C171.378445,6.916 169.572085,5.852 167.088339,5.852 C162.948763,5.852 160.389753,9.044 160.389753,12.616 C160.389753,15.884 162.497173,18.696 166.109894,18.696 C168.44311,18.696 170.24947,17.48 171.30318,15.276 L171.227915,15.2 C170.55053,15.884 169.722615,16.264 168.59364,16.264 C166.034629,16.264 164.378799,14.06 164.378799,10.868 C164.303534,7.98 165.432509,6.384 166.260424,6.384"/>
                    <path d="M153.013781,6.688 C153.239576,6.46 153.540636,6.308 153.841696,6.308 C154.895406,6.308 155.422261,8.132 155.422261,9.956 C155.121201,10.032 154.142756,10.184 151.884806,10.26 C151.960071,8.968 152.261131,7.524 153.013781,6.688 Z M159.110247,14.668 C158.357597,15.352 157.379152,15.884 156.024382,15.884 C153.390106,15.884 151.884806,14.06 151.884806,10.64 L158.959717,10.64 C159.034982,10.488 159.034982,10.26 159.034982,9.804 C159.034982,7.6 157.303887,5.776 154.067491,5.776 C150.680565,5.776 147.820495,8.588 147.820495,12.616 C147.820495,15.96 150.00318,18.696 153.465371,18.696 C156.250177,18.696 158.056537,17.1 159.185512,14.744 L159.110247,14.668 Z"/>
                    <path d="M146.315194,17.404 L146.315194,2.356 C146.315194,2.128 146.315194,0.988 146.390459,0 L146.315194,0 L140.896113,1.748 L140.896113,1.824 L141.648763,2.736 C141.874558,3.04 141.874558,3.268 141.874558,3.724 L141.874558,17.404 C141.874558,17.784 141.799293,17.86 141.197173,18.012 L140.820848,18.088 L140.820848,18.316 L147.44417,18.316 L147.44417,18.088 L147.067845,18.012 C146.390459,17.86 146.315194,17.784 146.315194,17.404"/>
                    <path d="M138.939223,17.404 L138.939223,2.356 C138.939223,2.128 138.939223,0.988 139.014488,0 L133.595406,1.748 L133.595406,1.824 L134.348057,2.736 C134.573852,3.04 134.573852,3.268 134.573852,3.724 L134.573852,17.404 C134.573852,17.784 134.498587,17.86 133.896466,18.012 L133.520141,18.088 L133.520141,18.316 L140.143463,18.316 L140.143463,18.088 L139.767138,18.012 C139.089753,17.86 138.939223,17.784 138.939223,17.404"/>
                    <path d="M127.95053,17.404 C127.8,17.784 127.49894,18.24 126.89682,18.24 C125.542049,18.24 124.789399,15.124 124.789399,11.856 C124.789399,10.26 124.864664,8.36 125.466784,7.22 C125.617314,6.84 125.918375,6.384 126.520495,6.384 C127.875265,6.384 128.627915,9.5 128.627915,12.768 C128.627915,14.364 128.477385,16.264 127.95053,17.404 M126.821555,5.852 C124.789399,5.852 123.208834,6.536 121.929329,7.828 C120.950883,8.816 120.122968,10.488 120.122968,12.388 C120.122968,15.656 122.456184,18.696 126.520495,18.696 C128.55265,18.696 130.133216,18.012 131.412721,16.72 C132.391166,15.732 133.219081,14.06 133.219081,12.16 C133.219081,8.968 130.885866,5.852 126.821555,5.852"/>
                    <path d="M115.004947,16.796 C114.026502,17.784 113.198587,18.24 112.295406,18.24 C109.585866,18.24 107.85477,14.288 107.85477,9.272 C107.85477,3.572 109.811661,1.064 112.069611,1.064 C113.048057,1.064 113.725442,1.368 114.703887,2.356 C115.757597,3.42 116.736042,5.016 118.015548,7.296 L118.241343,7.296 C118.166078,5.548 117.940283,2.432 117.789753,0.684 L117.639223,0.684 L117.413428,0.988 C117.262898,1.216 117.187633,1.292 116.961837,1.292 C116.510247,1.292 114.101767,0.608 112.295406,0.608 C106.123675,0.608 102.736749,4.712 102.736749,9.88 C102.736749,15.58 106.575265,18.772 112.069611,18.772 C113.499647,18.772 115.832862,18.316 118.090813,17.252 C118.241343,16.948 118.768198,13.224 118.843463,11.4 L118.692933,11.324 C117.262898,13.908 116.058657,15.732 115.004947,16.796"/>
                    <path d="M92.0491166,6.688 C92.2749117,6.46 92.5759717,6.308 92.8770318,6.308 C93.930742,6.308 94.4575972,8.132 94.4575972,9.956 C94.1565371,10.032 93.1780919,10.184 90.9201413,10.26 C90.9954064,8.968 91.2964664,7.524 92.0491166,6.688 Z M98.145583,14.668 C97.3929329,15.352 96.4144876,15.884 95.0597173,15.884 C92.4254417,15.884 90.9201413,14.06 90.9201413,10.64 L97.995053,10.64 C98.070318,10.488 98.070318,10.26 98.070318,9.804 C98.070318,7.6 96.3392226,5.776 93.1028269,5.776 C89.7159011,5.776 86.8558304,8.588 86.8558304,12.616 C86.8558304,15.96 89.0385159,18.696 92.5007067,18.696 C95.2855124,18.696 97.0918728,17.1 98.2208481,14.744 L98.145583,14.668 Z"/>
                    <path d="M82.9420495,9.5 C83.4689046,9.5 84.5226148,9.804 85.6515901,10.412 C86.3289753,9.652 86.7805654,8.664 86.7805654,7.524 C86.7805654,6.536 86.2537102,5.7 85.124735,5.7 C83.7699647,5.7 82.3399293,7.296 81.6625442,9.804 L81.5120141,9.728 L81.5872792,7.6 C81.5872792,7.144 81.6625442,6.612 81.7378092,5.548 L81.6625442,5.472 L76.1681979,7.296 L76.1681979,7.372 L76.9208481,8.284 C77.1466431,8.512 77.1466431,8.816 77.1466431,9.272 L77.1466431,17.328 C77.1466431,17.708 77.0713781,17.784 76.469258,17.936 L76.0929329,18.012 L76.0929329,18.24 L83.2431095,18.24 L83.2431095,18.012 L82.4151943,17.936 C81.7378092,17.86 81.6625442,17.784 81.6625442,17.328 L81.6625442,10.64 C81.8883392,10.032 82.2646643,9.5 82.9420495,9.5"/>
                    <path d="M74.5123675,17.404 L74.5123675,8.056 C74.5123675,7.828 74.5123675,6.688 74.5876325,5.7 L74.5123675,5.7 L69.0932862,7.448 L69.0932862,7.524 L69.8459364,8.436 C70.0717314,8.74 70.0717314,8.968 70.0717314,9.424 L70.0717314,17.48 C70.0717314,17.86 69.9964664,17.936 69.3943463,18.088 L69.0180212,18.164 L69.0180212,18.392 L75.6413428,18.392 L75.6413428,18.164 L75.2650177,18.088 C74.5876325,17.86 74.5123675,17.784 74.5123675,17.404"/>
                    <path d="M72.254417,4.788 C73.6844523,4.788 74.7381625,3.724 74.7381625,2.508 C74.7381625,1.292 73.7597173,0.304 72.480212,0.304 C70.9749117,0.304 69.8459364,1.444 69.8459364,2.584 C69.8459364,3.8 70.9749117,4.788 72.254417,4.788"/>
                    <path d="M62.6957597,16.568 C62.4699647,16.72 62.3194346,16.796 61.9431095,16.796 C61.2657244,16.796 60.6636042,16.112 60.6636042,14.896 C60.6636042,14.212 60.8141343,13.756 61.1904594,13.376 C61.5667845,12.996 61.8678445,12.844 62.6204947,12.388 L62.6204947,16.568 L62.6957597,16.568 Z M68.8674912,16.72 C68.4911661,16.948 68.265371,17.024 68.039576,17.024 C67.8137809,17.024 67.5879859,16.948 67.3621908,16.796 C67.1363958,16.568 66.9858657,16.264 66.9858657,15.428 L66.9858657,9.5 C66.9858657,8.284 66.8353357,7.372 66.1579505,6.688 C65.5558304,6.08 64.5773852,5.776 63.2978799,5.776 C61.1904594,5.776 58.7819788,7.372 57.5777385,8.588 C56.9003534,9.272 56.5992933,9.804 56.5992933,10.26 C56.5992933,10.868 57.0508834,11.248 58.1045936,11.248 C58.9325088,11.248 60.1367491,10.944 60.6636042,10.64 L59.9109541,7.98 C60.2120141,7.676 60.5130742,7.6 60.9646643,7.6 C61.4162544,7.6 61.8678445,7.676 62.0936396,7.98 C62.4699647,8.284 62.6204947,9.12 62.6204947,10.792 L62.6204947,12.084 L60.5130742,12.768 C58.3303887,13.528 57.5777385,13.832 57.0508834,14.44 C56.6745583,14.82 56.4487633,15.352 56.4487633,15.884 C56.4487633,17.252 57.4272085,18.544 59.1583039,18.544 C60.3625442,18.544 61.1151943,18.088 62.2441696,17.1 L62.6204947,16.796 L62.6957597,16.796 C63.1473498,17.936 64.1257951,18.62 65.4805654,18.62 C67.2116608,18.62 68.4911661,17.404 68.9427562,16.72 L68.8674912,16.72 Z"/>
                    <path d="M54.7176678,17.404 L54.7176678,8.056 C54.7176678,7.828 54.7176678,6.688 54.7929329,5.7 L54.7176678,5.624 L49.2985866,7.372 L49.2985866,7.448 L50.0512367,8.36 C50.2770318,8.664 50.2770318,8.892 50.2770318,9.348 L50.2770318,17.404 C50.2770318,17.784 50.2017668,17.86 49.5996466,18.012 L49.2233216,18.088 L49.2233216,18.316 L55.9219081,18.316 L55.9219081,18.088 L55.545583,18.012 C54.7176678,17.86 54.7176678,17.784 54.7176678,17.404"/>
                    <path d="M52.4597173,4.788 C53.8897527,4.788 54.9434629,3.724 54.9434629,2.508 C54.9434629,1.292 53.9650177,0.304 52.6855124,0.304 C51.180212,0.304 50.0512367,1.444 50.0512367,2.584 C50.0512367,3.8 51.180212,4.788 52.4597173,4.788"/>
                    <path d="M46.814841,16.188 C46.2879859,16.188 45.7611307,16.112 45.4600707,15.808 C45.1590106,15.504 45.0084806,15.048 45.0084806,14.364 L45.0084806,8.284 L48.3954064,8.284 L48.6964664,6.308 L45.0084806,6.308 L45.1590106,3.04 L45.0837456,3.04 C43.5784452,4.408 41.3957597,6.232 39.1378092,7.904 L39.1378092,8.208 L40.6431095,8.208 L40.6431095,14.972 C40.6431095,16.264 40.8689046,17.1 41.5462898,17.784 C42.1484099,18.392 43.0515901,18.696 44.3310954,18.696 C46.664311,18.696 48.1696113,17.328 49.0727915,15.58 L48.9975265,15.504 C48.2448763,15.96 47.4922261,16.188 46.814841,16.188"/>
                    <path d="M34.4713781,10.032 C33.2671378,9.348 32.5144876,8.74 32.5144876,7.752 C32.5144876,7.068 32.9660777,6.46 33.869258,6.46 C34.7724382,6.46 35.5250883,6.916 37.8583039,10.184 L38.0088339,10.108 C38.0088339,9.348 37.9335689,7.144 37.8583039,6.612 C37.0303887,6.308 35.6756184,5.852 34.019788,5.852 C31.1597173,5.852 29.2028269,7.524 29.2028269,9.652 C29.2028269,12.008 31.0091873,12.92 32.8908127,14.06 C34.4713781,15.048 35.2992933,15.732 35.2992933,16.72 C35.2992933,17.48 34.8477032,18.088 33.944523,18.088 C32.7402827,18.088 31.4607774,16.796 29.0522968,13.604 L28.9017668,13.68 C28.9017668,14.896 29.1275618,16.872 29.2780919,17.86 C30.4070671,18.316 31.9876325,18.62 33.4176678,18.62 C36.5035336,18.62 38.6109541,17.1 38.6109541,14.516 C38.6109541,12.388 36.7293286,11.248 34.4713781,10.032"/>
                    <path d="M21.5257951,6.688 C21.7515901,6.46 22.0526502,6.308 22.3537102,6.308 C23.4074205,6.308 23.9342756,8.132 23.9342756,9.956 C23.6332155,10.032 22.6547703,10.184 20.3968198,10.26 C20.4720848,8.968 20.7731449,7.524 21.5257951,6.688 Z M27.6222615,14.668 C26.8696113,15.352 25.8911661,15.884 24.5363958,15.884 C21.9021201,15.884 20.3968198,14.06 20.3968198,10.64 L27.4717314,10.64 C27.5469965,10.488 27.5469965,10.26 27.5469965,9.804 C27.5469965,7.6 25.8159011,5.776 22.5795053,5.776 C19.1925795,5.776 16.3325088,8.588 16.3325088,12.616 C16.3325088,15.96 18.5151943,18.696 21.9773852,18.696 C24.7621908,18.696 26.5685512,17.1 27.6975265,14.744 L27.6222615,14.668 Z"/>
                    <path d="M18.3646643,1.52 L19.2678445,1.14 L19.2678445,0.988 L12.4939929,0.988 L12.4939929,1.14 L13.5477032,1.596 C14.6014134,2.052 14.8272085,2.204 14.8272085,2.66 C14.8272085,3.42 14.0745583,5.928 13.9240283,6.46 L11.6660777,13.528 L8.05335689,3.572 C7.82756184,2.888 7.75229682,2.432 7.75229682,2.204 C7.75229682,1.9 7.90282686,1.596 8.80600707,1.444 L9.70918728,1.292 L9.70918728,0.988 L0,0.988 L0,1.216 L0.301060071,1.292 C1.80636042,1.596 2.03215548,1.9 3.61272085,5.852 L8.80600707,18.696 L10.1607774,18.696 L15.3540636,5.852 C16.7088339,2.736 17.009894,2.204 18.3646643,1.52"/>
                </g>
            </g>
        </g>
    </g>
</svg>

<svg width="213" height="19" xmlns="http://www.w3.org/2000/svg"><g fill="#010202" fill-rule="nonzero"><path d="M206.527 6.688c.226-.228.527-.38.828-.38 1.054 0 1.58 1.824 1.58 3.648-.3.076-1.279.228-3.537.304.075-1.292.377-2.736 1.13-3.572Zm6.097 7.98c-.753.684-1.731 1.216-3.086 1.216-2.634 0-4.14-1.824-4.14-5.244h7.075c.075-.152.075-.38.075-.836 0-2.204-1.73-4.028-4.967-4.028-3.387 0-6.247 2.812-6.247 6.84 0 3.344 2.183 6.08 5.645 6.08 2.785 0 4.591-1.596 5.72-3.952l-.075-.076ZM202.764 6.384v-.076h-4.666v.076l.602.38c.602.304.978.684.978.988 0 .456-.602 2.432-.978 3.572l-.979 2.736h-.075l-2.258-6.156c-.15-.304-.15-.684-.15-.76 0-.228.15-.304.752-.456l.677-.152v-.228h-7.677v.228l.452.152c.677.152.828.228 1.204 1.14l4.667 10.64h1.129l4.14-9.652c.526-1.216.827-1.444 1.505-1.976l.677-.456ZM187.56 17.404V8.056c0-.228 0-1.368.076-2.356l-.076-.076-5.419 1.824v.076l.753.912c.226.304.226.532.226.988v8.056c0 .38-.075.456-.678.608l-.376.076v.228h6.623v-.228l-.376-.076c-.753-.228-.753-.304-.753-.684M185.302 4.788c1.43 0 2.484-1.064 2.484-2.28 0-1.216-.978-2.204-2.258-2.204-1.505 0-2.634 1.14-2.634 2.28 0 1.216 1.129 2.204 2.408 2.204M179.658 16.188c-.527 0-1.054-.076-1.355-.38-.301-.304-.452-.76-.452-1.444v-6.08h3.387l.301-1.976h-3.688l.076-3.192h-.076a81.114 81.114 0 0 1-5.946 4.864v.304h1.506v6.764c0 1.292.225 2.128.903 2.812.602.608 1.505.912 2.785.912 2.333 0 3.838-1.368 4.741-3.116l-.075-.076c-.677.38-1.43.608-2.107.608M166.26 6.384c.226 0 .301.076.452.38l1.656 3.04c.376.684.602.76.978.76.903 0 2.032-.76 2.032-2.052 0-1.596-1.806-2.66-4.29-2.66-4.14 0-6.698 3.192-6.698 6.764 0 3.268 2.107 6.08 5.72 6.08 2.333 0 4.14-1.216 5.193-3.42l-.075-.076c-.677.684-1.505 1.064-2.634 1.064-2.56 0-4.215-2.204-4.215-5.396-.075-2.888 1.054-4.484 1.881-4.484M153.014 6.688c.226-.228.527-.38.828-.38 1.053 0 1.58 1.824 1.58 3.648-.3.076-1.28.228-3.537.304.075-1.292.376-2.736 1.129-3.572Zm6.096 7.98c-.752.684-1.73 1.216-3.086 1.216-2.634 0-4.14-1.824-4.14-5.244h7.076c.075-.152.075-.38.075-.836 0-2.204-1.731-4.028-4.968-4.028-3.386 0-6.247 2.812-6.247 6.84 0 3.344 2.183 6.08 5.645 6.08 2.785 0 4.592-1.596 5.72-3.952l-.075-.076ZM146.315 17.404V2.356c0-.228 0-1.368.075-2.356h-.075l-5.419 1.748v.076l.753.912c.226.304.226.532.226.988v13.68c0 .38-.076.456-.678.608l-.376.076v.228h6.623v-.228l-.376-.076c-.678-.152-.753-.228-.753-.608M138.94 17.404V2.356c0-.228 0-1.368.074-2.356l-5.419 1.748v.076l.753.912c.226.304.226.532.226.988v13.68c0 .38-.075.456-.678.608l-.376.076v.228h6.623v-.228l-.376-.076c-.677-.152-.828-.228-.828-.608M127.95 17.404c-.15.38-.451.836-1.053.836-1.355 0-2.108-3.116-2.108-6.384 0-1.596.076-3.496.678-4.636.15-.38.451-.836 1.053-.836 1.355 0 2.108 3.116 2.108 6.384 0 1.596-.15 3.496-.677 4.636m-1.13-11.552c-2.032 0-3.612.684-4.892 1.976-.978.988-1.806 2.66-1.806 4.56 0 3.268 2.333 6.308 6.397 6.308 2.033 0 3.613-.684 4.893-1.976.978-.988 1.806-2.66 1.806-4.56 0-3.192-2.333-6.308-6.397-6.308M115.005 16.796c-.978.988-1.806 1.444-2.71 1.444-2.71 0-4.44-3.952-4.44-8.968 0-5.7 1.957-8.208 4.215-8.208.978 0 1.655.304 2.634 1.292 1.054 1.064 2.032 2.66 3.312 4.94h.225c-.075-1.748-.3-4.864-.451-6.612h-.15l-.227.304c-.15.228-.225.304-.451.304-.452 0-2.86-.684-4.667-.684-6.171 0-9.558 4.104-9.558 9.272 0 5.7 3.838 8.892 9.333 8.892 1.43 0 3.763-.456 6.02-1.52.151-.304.678-4.028.753-5.852l-.15-.076c-1.43 2.584-2.634 4.408-3.688 5.472M92.05 6.688c.225-.228.526-.38.827-.38 1.054 0 1.58 1.824 1.58 3.648-.3.076-1.279.228-3.537.304.075-1.292.376-2.736 1.13-3.572Zm6.096 7.98c-.753.684-1.732 1.216-3.086 1.216-2.635 0-4.14-1.824-4.14-5.244h7.075c.075-.152.075-.38.075-.836 0-2.204-1.73-4.028-4.967-4.028-3.387 0-6.247 2.812-6.247 6.84 0 3.344 2.183 6.08 5.645 6.08 2.785 0 4.59-1.596 5.72-3.952l-.075-.076ZM82.942 9.5c.527 0 1.58.304 2.71.912.677-.76 1.129-1.748 1.129-2.888 0-.988-.527-1.824-1.656-1.824-1.355 0-2.785 1.596-3.462 4.104l-.151-.076.075-2.128c0-.456.076-.988.15-2.052l-.074-.076-5.495 1.824v.076l.753.912c.226.228.226.532.226.988v8.056c0 .38-.076.456-.678.608l-.376.076v.228h7.15v-.228l-.828-.076c-.677-.076-.752-.152-.752-.608V10.64c.225-.608.602-1.14 1.279-1.14M74.512 17.404V8.056c0-.228 0-1.368.076-2.356h-.076l-5.419 1.748v.076l.753.912c.226.304.226.532.226.988v8.056c0 .38-.076.456-.678.608l-.376.076v.228h6.623v-.228l-.376-.076c-.677-.228-.753-.304-.753-.684M72.254 4.788c1.43 0 2.484-1.064 2.484-2.28 0-1.216-.978-2.204-2.258-2.204-1.505 0-2.634 1.14-2.634 2.28 0 1.216 1.129 2.204 2.408 2.204M62.696 16.568c-.226.152-.377.228-.753.228-.677 0-1.28-.684-1.28-1.9 0-.684.151-1.14.527-1.52.377-.38.678-.532 1.43-.988v4.18h.076Zm6.171.152c-.376.228-.602.304-.827.304-.226 0-.452-.076-.678-.228-.226-.228-.376-.532-.376-1.368V9.5c0-1.216-.15-2.128-.828-2.812-.602-.608-1.58-.912-2.86-.912-2.108 0-4.516 1.596-5.72 2.812-.678.684-.979 1.216-.979 1.672 0 .608.452.988 1.506.988.828 0 2.032-.304 2.559-.608l-.753-2.66c.301-.304.602-.38 1.054-.38.451 0 .903.076 1.129.38.376.304.526 1.14.526 2.812v1.292l-2.107.684c-2.183.76-2.935 1.064-3.462 1.672-.376.38-.602.912-.602 1.444 0 1.368.978 2.66 2.71 2.66 1.204 0 1.956-.456 3.085-1.444l.376-.304h.076c.451 1.14 1.43 1.824 2.785 1.824 1.73 0 3.01-1.216 3.462-1.9h-.076ZM54.718 17.404V8.056c0-.228 0-1.368.075-2.356l-.075-.076-5.42 1.748v.076l.753.912c.226.304.226.532.226.988v8.056c0 .38-.075.456-.677.608l-.377.076v.228h6.699v-.228l-.376-.076c-.828-.152-.828-.228-.828-.608M52.46 4.788c1.43 0 2.483-1.064 2.483-2.28 0-1.216-.978-2.204-2.257-2.204-1.506 0-2.635 1.14-2.635 2.28 0 1.216 1.13 2.204 2.409 2.204M46.815 16.188c-.527 0-1.054-.076-1.355-.38-.301-.304-.452-.76-.452-1.444v-6.08h3.387l.301-1.976h-3.688l.151-3.268h-.075a81.114 81.114 0 0 1-5.946 4.864v.304h1.505v6.764c0 1.292.226 2.128.903 2.812.602.608 1.506.912 2.785.912 2.333 0 3.839-1.368 4.742-3.116l-.075-.076c-.753.456-1.506.684-2.183.684M34.471 10.032c-1.204-.684-1.957-1.292-1.957-2.28 0-.684.452-1.292 1.355-1.292s1.656.456 3.99 3.724l.15-.076c0-.76-.075-2.964-.15-3.496-.829-.304-2.183-.76-3.84-.76-2.86 0-4.816 1.672-4.816 3.8 0 2.356 1.806 3.268 3.688 4.408 1.58.988 2.408 1.672 2.408 2.66 0 .76-.451 1.368-1.354 1.368-1.205 0-2.484-1.292-4.893-4.484l-.15.076c0 1.216.226 3.192.376 4.18 1.13.456 2.71.76 4.14.76 3.086 0 5.193-1.52 5.193-4.104 0-2.128-1.882-3.268-4.14-4.484M21.526 6.688c.226-.228.527-.38.828-.38 1.053 0 1.58 1.824 1.58 3.648-.3.076-1.28.228-3.537.304.075-1.292.376-2.736 1.129-3.572Zm6.096 7.98c-.752.684-1.73 1.216-3.086 1.216-2.634 0-4.14-1.824-4.14-5.244h7.076c.075-.152.075-.38.075-.836 0-2.204-1.731-4.028-4.967-4.028-3.387 0-6.247 2.812-6.247 6.84 0 3.344 2.182 6.08 5.644 6.08 2.785 0 4.592-1.596 5.72-3.952l-.075-.076ZM18.365 1.52l.903-.38V.988h-6.774v.152l1.054.456c1.053.456 1.28.608 1.28 1.064 0 .76-.753 3.268-.904 3.8l-2.258 7.068-3.613-9.956c-.225-.684-.3-1.14-.3-1.368 0-.304.15-.608 1.053-.76l.903-.152V.988H0v.228l.301.076c1.505.304 1.731.608 3.312 4.56l5.193 12.844h1.355l5.193-12.844c1.355-3.116 1.656-3.648 3.01-4.332"/></g></svg>
